communes/1099.svg

<?xml version="1.0" encoding="UTF-8"?>
<svg width="520" height="585" version="1.1" viewBox="0 0 100 112.5" xmlns="http://www.w3.org/2000/svg" xmlns:cc="http://creativecommons.org/ns#" xmlns:dc="http://purl.org/dc/elements/1.1/" xmlns:rdf="http://www.w3.org/1999/02/22-rdf-syntax-ns#">
<metadata>
<rdf:RDF>
<cc:Work rdf:about="">
<dc:format>image/svg+xml</dc:format>
<dc:type rdf:resource="http://purl.org/dc/dcmitype/StillImage"/>
</cc:Work>
</rdf:RDF>
</metadata>
<title>Wappen von Schenkon</title>
<desc>Wappen der Schweizer Gemeinde Schenkon, Kanton Luzern</desc>
<defs>
<clipPath id="a">
<path d="m2 2v60.5a48 48 0 0 0 96 0v-60.5z"/>
</clipPath>
</defs>
<path d="m1 1v61.5a49 49 0 0 0 98 0v-61.5z" fill="#e2001a" stroke="#000" stroke-width="2"/>
<path d="m0 0h42.2v15.6h15.6v15.6h-15.6v15.6h15.6v15.6h-15.6v15.6h15.6v15.6h-15.6v18.4h-42.2" clip-path="url(#a)" fill="#fff" stroke="#000"/>
</svg>

<?xml version="1.0" encoding="UTF-8" standalone="no"?>
<svg
   xmlns:dc="http://purl.org/dc/elements/1.1/"
   xmlns:cc="http://creativecommons.org/ns#"
   xmlns:rdf="http://www.w3.org/1999/02/22-rdf-syntax-ns#"
   xmlns:svg="http://www.w3.org/2000/svg"
   xmlns="http://www.w3.org/2000/svg"
   xmlns:sodipodi="http://sodipodi.sourceforge.net/DTD/sodipodi-0.dtd"
   xmlns:inkscape="http://www.inkscape.org/namespaces/inkscape"
   version="1.1"
   width="520"
   height="585"
   viewBox="0,0 100,112.5"
   id="svg15"
   sodipodi:docname="1099.svg">
  <metadata
     id="metadata19">
    <rdf:RDF>
      <cc:Work
         rdf:about="">
        <dc:format>image/svg+xml</dc:format>
        <dc:type
           rdf:resource="http://purl.org/dc/dcmitype/StillImage" />
      </cc:Work>
    </rdf:RDF>
  </metadata>
  <sodipodi:namedview
     pagecolor="#ffffff"
     bordercolor="#666666"
     borderopacity="1"
     objecttolerance="10"
     gridtolerance="10"
     guidetolerance="10"
     inkscape:pageopacity="0"
     inkscape:pageshadow="2"
     inkscape:window-width="640"
     inkscape:window-height="480"
     id="namedview17" />
  <title
     id="title2">Wappen von Schenkon</title>
  <desc
     id="desc4">Wappen der Schweizer Gemeinde Schenkon, Kanton Luzern</desc>
  <defs
     id="defs9">
    <clipPath
       id="cpSchild">
      <path
         d="M 2,2 V 62.5 a 48,48 0 0,0 96,0 V 2 z"
         id="path6" />
    </clipPath>
  </defs>
  <path
     d="M 1,1 V 62.5 a 49,49 0 0,0 98,0 V 1 z"
     stroke="black"
     stroke-width="2"
     fill="#e2001a"
     id="path11" />
  <path
     d="M 0,0 H 42.2 v 15.6 h 15.6 v 15.6 H 42.2 v 15.6 h 15.6 v 15.6 H 42.2 v 15.6 h 15.6 v 15.6 H 42.2 V 112 H 0"
     stroke="black"
     stroke-width="1"
     fill="white"
     clip-path="url(#cpSchild)"
     id="path13" />
</svg>
